X: 6
T: The Dark Woman of the Glen
M: 3/4
L: 1/8
B: "O'Neill's 6"
N: "Very slow" "collected by P. Tuohy"
Z: "Transcribed by Norbert Paap, norbertp@bdu.uva.nl"
K:G
G-E \
| D2 E-F D(E/4F/4G/4A/4) \
| (BG/2E/2) (D/4E/4F/4G/4A/4B/4c/4d/4) e>f \
| g2 (fg/2a/2) g>e \
| (3(fed) (3(edB) (3(dBA) |
| (B3/2G/4B/4 A2) (B/4c/4B/4c/4B/4c/4B3/4A/4) \
| (G/4F/4E/4F/4G3/4A/4 G4) \
| d>B .A/2.B/2.c/2.d/2 e>f \
| g2 f/2e/2d/2e/2 (f(3e/2f/2g/2) |
| a2 bg f2 e>d d2 g2 \
| (a/4g/4f/4g/4 e/4f/4e/4d/4 B/4A/4B/4d/4 e/4d/4e/4f/4 g/4f/4g/4a/4 b/4a/4g/4f/4) \
| g2 (fg/2a/2) g>e |
| (3(fed) (3(edB) (3(dBA) \
| B2 (3(GBA) G2 \
| (G/4E/4D/4E/4F/4G/4A/4B/4) .c/2.d/2.e/2.f/2 g>a \
| g2 (fg/2a/2) g>e |
| (3(fed) (3(edB) (3(dBA) \
| B2 (3(GED) (3(FGB) \
| A4 (B/4c/4B/4c/4B/4c/4B3/4A/4) \
| (G/4F/4E/4F/4G3/4A/4 G4) |:|


